X: 20010
T: Jimmy Allen
R: polka
M: 2/4
K: Dmajor
|:FD DE|FA/F/ DE/F/|GE EF|GA/G/ FE|
Fd dB|Ad/A/ FF/G/|AA GF/E/|D2 D>E:|
|:Fd dc|BA GG/F/|Ee e>d|cA Bc|
d>e dB|Ad/A/ FF/G/|AA GF/E/|D2 D>E:|

